assets/icon-launch.svg

<?xml version="1.0" encoding="UTF-8"?>
<svg width="27px" height="26px" viewBox="0 0 27 26" version="1.1" xmlns="http://www.w3.org/2000/svg" xmlns:xlink="http://www.w3.org/1999/xlink">
    <title>rocket-solid</title>
    <g id="Page-1" stroke="none" stroke-width="1" fill="none" fill-rule="evenodd">
        <g id="Main" transform="translate(-79.000000, -444.000000)" fill="#A9ABB0" fill-rule="nonzero">
            <g id="rocket-solid" transform="translate(79.000000, 444.000000)">
                <path d="M23.90625,0 C23.210938,0 22.242188,0.03125 21.21875,0.125 C19.171875,0.316406 16.808594,0.660156 15.34375,2.125 C14.113281,3.355469 11.570313,6.621094 9.21875,9.6875 C8.753906,10.292969 8.773438,10.28125 8.34375,10.84375 L6.625,10.75 C5.347656,10.683594 4.117188,11.222656 3.3125,12.21875 L1.21875,14.78125 L0.1875,16.09375 L1.8125,16.40625 L5.09375,17.0625 L8.9375,20.90625 L9.59375,24.1875 L9.9375,25.8125 L11.21875,24.78125 L13.78125,22.6875 C14.777344,21.882813 15.316406,20.652344 15.25,19.375 L15.15625,17.6875 C15.738281,17.246094 15.71875,17.257813 16.34375,16.78125 C19.417969,14.425781 22.695313,11.898438 23.90625,10.6875 C25.359375,9.234375 25.683594,6.835938 25.875,4.78125 C26.066406,2.726563 25.96875,0.96875 25.96875,0.96875 L25.9375,0.0625 L25.03125,0.03125 C25.03125,0.03125 24.601563,0 23.90625,0 Z M23,2 C23.398438,2 23.679688,2.023438 23.96875,2.03125 C23.980469,2.613281 24.003906,3.21875 23.875,4.59375 C23.699219,6.488281 23.121094,8.597656 22.46875,9.25 C21.578125,10.140625 18.1875,12.839844 15.125,15.1875 C12.417969,17.261719 10.511719,18.71875 9.96875,19.125 L6.90625,16.0625 C7.316406,15.511719 8.71875,13.597656 10.78125,10.90625 C13.125,7.851563 15.832031,4.449219 16.75,3.53125 C17.433594,2.847656 19.519531,2.269531 21.40625,2.09375 C22.089844,2.03125 22.601563,2 23,2 Z M18.4375,5.53125 C17.320313,5.53125 16.4375,6.445313 16.4375,7.5625 C16.4375,8.679688 17.320313,9.59375 18.4375,9.59375 C19.554688,9.59375 20.46875,8.679688 20.46875,7.5625 C20.46875,6.445313 19.554688,5.53125 18.4375,5.53125 Z M6.5,12.75 L6.875,12.78125 C6.273438,13.578125 5.289063,14.855469 5.15625,15.03125 L3.8125,14.75 L4.84375,13.5 C5.246094,13.003906 5.859375,12.714844 6.5,12.75 Z M4.21875,17.9375 C3.363281,18.792969 2.875,19.976563 2.53125,20.96875 C2.1875,21.960938 2.03125,22.78125 2.03125,22.78125 L1.71875,24.25 L3.1875,23.96875 C3.1875,23.96875 3.984375,23.832031 4.96875,23.5 C5.953125,23.167969 7.136719,22.675781 8.03125,21.78125 L6.625,20.375 C6.179688,20.820313 5.296875,21.210938 4.5,21.5 C4.804688,20.667969 5.25,19.722656 5.625,19.34375 L4.21875,17.9375 Z M13.21875,19.125 L13.25,19.5 C13.285156,20.140625 13.03125,20.753906 12.53125,21.15625 L11.25,22.1875 L10.96875,20.84375 C11.144531,20.714844 12.421875,19.722656 13.21875,19.125 Z" id="Shape"></path>
            </g>
        </g>
    </g>
</svg>

<svg width="27" height="26" viewBox="0 0 27 26" xmlns="http://www.w3.org/2000/svg"><path d="M23.906 0c-.695 0-1.664.031-2.687.125-2.047.191-4.41.535-5.875 2-1.23 1.23-3.774 4.496-6.125 7.563-.465.605-.446.593-.875 1.156l-1.719-.094a3.982 3.982 0 00-3.313 1.469L1.22 14.78.187 16.094l1.625.312 3.282.657 3.843 3.843.657 3.282.344 1.625 1.28-1.032 2.563-2.093a3.982 3.982 0 001.469-3.313l-.094-1.688c.582-.44.563-.43 1.188-.906 3.074-2.355 6.351-4.883 7.562-6.093 1.453-1.454 1.778-3.852 1.969-5.907.191-2.054.094-3.812.094-3.812l-.032-.906-.906-.032S24.601 0 23.906 0zM23 2c.398 0 .68.023.969.031.011.582.035 1.188-.094 2.563-.176 1.894-.754 4.004-1.406 4.656-.89.89-4.282 3.59-7.344 5.938a1031.119 1031.119 0 01-5.156 3.937l-3.063-3.063c.41-.55 1.813-2.464 3.875-5.156 2.344-3.054 5.051-6.457 5.969-7.375.684-.683 2.77-1.261 4.656-1.437A18.28 18.28 0 0123 2zm-4.563 3.531c-1.117 0-2 .914-2 2.032 0 1.117.883 2.03 2 2.03a2.037 2.037 0 002.032-2.03 2.037 2.037 0 00-2.032-2.032zM6.5 12.75l.375.031c-.602.797-1.586 2.074-1.719 2.25l-1.343-.281 1.03-1.25a2.002 2.002 0 011.657-.75zm-2.281 5.188c-.856.855-1.344 2.039-1.688 3.03-.344.993-.5 1.813-.5 1.813L1.72 24.25l1.468-.281s.797-.137 1.782-.469c.984-.332 2.168-.824 3.062-1.719l-1.406-1.406c-.445.445-1.328.836-2.125 1.125.305-.832.75-1.777 1.125-2.156L4.22 17.937zm9 1.187l.031.375a1.965 1.965 0 01-.719 1.656l-1.281 1.032-.281-1.344c.176-.13 1.453-1.121 2.25-1.719z" fill="#89a"/></svg>
